pieces/kosal/kb.svg

<svg xmlns="http://www.w3.org/2000/svg" viewBox="0 0 81 81"><style>.st0{fill:none}.st1{fill:#010101}.st2{fill:#6d6e6e}</style><path class="st0" d="M0 0h81v81H0z"/><path class="st1" d="M58.6 25.5c-6.2 0-9.3 2.6-10.9 4.2l-7.2 12.6-7.2-12.6c-1.6-1.6-4.7-4.2-10.9-4.2-9.7 0-15.3 8-15.3 15.8 0 8.8 3.8 11.9 8.9 22.3V72h49v-8.4c5.1-10.5 8.9-13.5 8.9-22.3 0-7.8-5.6-15.8-15.3-15.8zM40.5 61.6l-3.6-6.4 3.6-6.4 3.6 6.4-3.6 6.4z"/><path class="st1" d="M50.7 21.4v-7.7l-8 .9 1.7-7.4h-7.8l1.7 7.4-8-.9v7.7l8-2.4-3.1 8.9 5.3 11 5.3-11-3.1-8.9z"/><path class="st2" d="M40.5 19.9l-2.9 7.6 2.9 6.4zM22.8 29.1c-7.2 0-11.7 6.4-11.7 12.9 0 4 2.9 8.2 5.8 12 0-12.4 4.6-17.4 12.5-22.6 0 0-2-2.3-6.6-2.3zM43.5 44l7.4-12.7s3.6-2.6 8-2.6 4.5.5 4.5.5L43.5 44zM31.8 15.1l3.8 2.3-3.8 2.3zM49.2 15.1l-6.4 1.2 4.7 1.1zM42.6 8.9l-2.1 1.9-2.1-1.9z"/></svg>

<svg width="81" height="81" viewBox="0 0 81 81" fill="none" xmlns="http://www.w3.org/2000/svg">
<path d="M58.6 25.5C52.4 25.5 49.3 28.1 47.7 29.7L40.5 42.3L33.3 29.7C31.7 28.1 28.6 25.5 22.4 25.5C12.7 25.5 7.10001 33.5 7.10001 41.3C7.10001 50.1 10.9 53.2 16 63.6V72H65V63.6C70.1 53.1 73.9 50.1 73.9 41.3C73.9 33.5 68.3 25.5 58.6 25.5V25.5ZM40.5 61.6L36.9 55.2L40.5 48.8L44.1 55.2L40.5 61.6Z" fill="#010101"/>
<path d="M50.7 21.4V13.7L42.7 14.6L44.4 7.2H36.6L38.3 14.6L30.3 13.7V21.4L38.3 19L35.2 27.9L40.5 38.9L45.8 27.9L42.7 19L50.7 21.4Z" fill="#010101"/>
<path d="M40.5 19.9L37.6 27.5L40.5 33.9V19.9ZM22.8 29.1C15.6 29.1 11.1 35.5 11.1 42C11.1 46 14 50.2 16.9 54C16.9 41.6 21.5 36.6 29.4 31.4C29.4 31.4 27.4 29.1 22.8 29.1V29.1ZM43.5 44L50.9 31.3C50.9 31.3 54.5 28.7 58.9 28.7C63.3 28.7 63.4 29.2 63.4 29.2L43.5 44ZM31.8 15.1L35.6 17.4L31.8 19.7V15.1ZM49.2 15.1L42.8 16.3L47.5 17.4L49.2 15.1ZM42.6 8.9L40.5 10.8L38.4 8.9H42.6Z" fill="#6D6E6E"/>
</svg>
